outputs/icons/action/love_round.svg

<svg xmlns="http://www.w3.org/2000/svg" width="1200" height="1200" fill="none"><g clip-path="url(#a)"><path fill="#000" d="M667.495 1006.51c-38 34.5-96.5 34.5-134.5-.5l-5.5-5c-262.5-237.5-434-393-427.499-587.001 2.999-85.001 46.499-166.501 116.999-214.501 132-89.999 295-48 383 55 88-103 251-145.5 383-55 70.5 48 114 129.5 117 214.501 7 194.001-165 349.501-427.5 588.001z"/></g><defs><clipPath id="a"><path fill="#fff" d="M0 0h1200v1200H0z"/></clipPath></defs></svg>

<svg width="1200" height="1200" viewBox="0 0 1200 1200" fill="none" xmlns="http://www.w3.org/2000/svg"><g clip-path="url(#clip0_223_1868)"><path d="M667.495 1006.51C629.495 1041.01 570.995 1041.01 532.995 1006.01L527.495 1001.01C264.995 763.51 93.495 608.01 99.996 414.009C102.995 329.008 146.495 247.508 216.995 199.508C348.995 109.509 511.995 151.508 599.995 254.508C687.995 151.508 850.995 109.008 982.995 199.508C1053.495 247.508 1096.995 329.008 1099.995 414.009C1106.995 608.01 934.995 763.51 672.495 1002.01L667.495 1006.51Z" fill="black"/></g><defs><clipPath id="clip0_223_1868"><path width="24" fill="white" d="M0 0H1200V1200H0V0z"/></clipPath></defs></svg>
